src/pos-icons/view-array.svg

<svg height="24" viewBox="0 0 24 24" width="24" xmlns="http://www.w3.org/2000/svg"><path d="m8 18h9v-13h-9m10 0v13h3v-13m-17 13h3v-13h-3z"/></svg>

<?xml version="1.0" encoding="UTF-8"?><!DOCTYPE svg PUBLIC "-//W3C//DTD SVG 1.1//EN" "http://www.w3.org/Graphics/SVG/1.1/DTD/svg11.dtd"><svg xmlns="http://www.w3.org/2000/svg" xmlns:xlink="http://www.w3.org/1999/xlink" version="1.1" id="mdi-view-array" width="24" height="24" viewBox="0 0 24 24"><path d="M8,18H17V5H8M18,5V18H21V5M4,18H7V5H4V18Z" /></svg>
